client/resources/iconsets/breeze/src/svg/large/icon_large_view.svg

<svg xmlns="http://www.w3.org/2000/svg" width="32" height="32" viewBox="0 0 32 32">
 <path style="fill:#6d6d70"
       d="M 5 4 C 4.446 4 4 4.446 4 5 L 4 27 C 4 27.554 4.446 28 5 28 L 8 28 C 8.554 28 9 27.554 9 27 L 9 5 C 9 4.446 8.554 4 8 4 L 5 4 z M 12 4 C 11.446 4 11 4.446 11 5 C 11 5.554 11.446 6 12 6 L 27 6 C 27.554 6 28 5.554 28 5 C 28 4.446 27.554 4 27 4 L 12 4 z M 12 8 C 11.446 8 11 8.446 11 9 C 11 9.554 11.446 10 12 10 L 27 10 C 27.554 10 28 9.554 28 9 C 28 8.446 27.554 8 27 8 L 12 8 z M 12 12 C 11.446 12 11 12.446 11 13 C 11 13.554 11.446 14 12 14 L 27 14 C 27.554 14 28 13.554 28 13 C 28 12.446 27.554 12 27 12 L 12 12 z M 12 16 C 11.446 16 11 16.446 11 17 L 11 27 C 11 27.554 11.446 28 12 28 L 27 28 C 27.554 28 28 27.554 28 27 L 28 17 C 28 16.446 27.554 16 27 16 L 12 16 z M 13 18 L 26 18 L 26 26 L 13 26 L 13 18 z "
       />
</svg>

<svg xmlns="http://www.w3.org/2000/svg" width="32" height="32"><path d="M5 4a1 1 0 0 0-1 1v22a1 1 0 0 0 1 1h3a1 1 0 0 0 1-1V5a1 1 0 0 0-1-1H5zm7 0a1 1 0 1 0 0 2h15a1 1 0 1 0 0-2H12zm0 4a1 1 0 1 0 0 2h15a1 1 0 1 0 0-2H12zm0 4a1 1 0 1 0 0 2h15a1 1 0 1 0 0-2H12zm0 4a1 1 0 0 0-1 1v10a1 1 0 0 0 1 1h15a1 1 0 0 0 1-1V17a1 1 0 0 0-1-1H12zm1 2h13v8H13v-8z" fill="#6d6d70"/></svg>
